{ "compressionlevel":-1,
 "height":21,
 "infinite":false,
 "layers":[
        {
         "data":[1, 1, 1, 1, 1, 1, 1, 1, 1, 1, 1, 1, 1, 1, 1, 1, 1, 1, 1, 1, 1,
            1, 4, 4, 4, 4, 4, 4, 4, 4, 4, 4, 4, 4, 4, 4, 4, 4, 4, 4, 4, 1,
            1, 4, 4, 1, 1, 1, 1, 4, 4, 1, 1, 1, 4, 4, 1, 1, 1, 1, 4, 4, 1,
            1, 4, 4, 1, 1, 1, 1, 4, 4, 1, 1, 1, 4, 4, 1, 1, 1, 1, 4, 4, 1,
            1, 4, 4, 4, 4, 4, 4, 4, 4, 4, 4, 4, 4, 4, 4, 4, 4, 4, 4, 4, 1,
            1, 4, 4, 1, 4, 4, 1, 4, 4, 1, 4, 1, 4, 4, 1, 4, 4, 1, 4, 4, 1,
            1, 4, 4, 4, 4, 4, 4, 4, 4, 4, 4, 4, 4, 4, 4, 4, 4, 4, 4, 4, 1,
            1, 1, 1, 4, 4, 4, 4, 4, 4, 4, 4, 4, 4, 4, 4, 4, 4, 4, 4, 4, 1,
            1, 1, 1, 1, 4, 4, 4, 4, 4, 4, 4, 4, 4, 4, 4, 4, 4, 4, 4, 4, 1,
            1, 1, 1, 1, 1, 4, 4, 4, 4, 4, 1, 1, 1, 4, 4, 4, 4, 4, 4, 4, 1,
            1, 1, 1, 1, 1, 4, 4, 4, 4, 4, 1, 1, 1, 4, 4, 4, 4, 4, 4, 4, 2,
            1, 1, 1, 1, 1, 4, 4, 4, 4, 4, 1, 1, 1, 4, 4, 4, 4, 4, 4, 4, 1,
            1, 1, 1, 1, 4, 4, 4, 4, 4, 4, 4, 4, 4, 4, 4, 4, 4, 4, 4, 4, 1,
            1, 1, 1, 4, 4, 4, 4, 4, 4, 4, 4, 4, 4, 4, 4, 4, 4, 4, 4, 4, 1,
            1, 4, 4, 4, 4, 4, 4, 4, 4, 4, 4, 4, 4, 4, 4, 4, 4, 4, 4, 4, 1,
            1, 4, 4, 1, 4, 4, 1, 4, 4, 1, 4, 1, 4, 4, 1, 4, 4, 1, 4, 4, 1,
            1, 4, 4, 4, 4, 4, 4, 4, 4, 4, 4, 4, 4, 4, 4, 4, 4, 4, 4, 4, 1,
            1, 4, 4, 1, 1, 1, 1, 4, 4, 1, 1, 1, 4, 4, 1, 1, 1, 1, 4, 4, 1,
            1, 4, 4, 1, 1, 1, 1, 4, 4, 1, 1, 1, 4, 4, 1, 1, 1, 1, 4, 4, 1,
            1, 4, 4, 4, 4, 4, 4, 4, 4, 4, 4, 4, 4, 4, 4, 4, 4, 4, 4, 4, 1,
            1, 1, 1, 1, 1, 1, 1, 1, 1, 1, 1, 1, 1, 1, 1, 1, 1, 1, 1, 1, 1],
         "height":21,
         "id":1,
         "name":"Tiles",
         "opacity":1,
         "type":"tilelayer",
         "visible":true,
         "width":21,
         "x":0,
         "y":0
        }, 
        {
         "draworder":"topdown",
         "id":2,
         "name":"Objects",
         "objects":[
                {
                 "height":0,
                 "id":1,
                 "name":"spawn",
                 "opacity":1,
                 "point":true,
                 "rotation":0,
                 "type":"spawn",
                 "visible":true,
                 "width":0,
                 "x":1212,
                 "y":671
                }, 
                {
                 "height":63.090909090909,
                 "id":2,
                 "name":"door",
                 "opacity":1,
                 "properties":[
                        {
                         "name":"target_room_id",
                         "type":"int",
                         "value":1
                        }, 
                        {
                         "name":"target_x",
                         "type":"float",
                         "value":96
                        }, 
                        {
                         "name":"target_y",
                         "type":"float",
                         "value":960
                        }],
                 "rotation":0,
                 "type":"door",
                 "visible":true,
                 "width":63.4545454545455,
                 "x":1280.18181818182,
                 "y":640.545454545455
                }],
         "opacity":1,
         "type":"objectgroup",
         "visible":true,
         "x":0,
         "y":0
        }],
 "nextlayerid":3,
 "nextobjectid":3,
 "orientation":"orthogonal",
 "renderorder":"right-down",
 "tiledversion":"1.12.1",
 "tileheight":64,
 "tilesets":[
        {
         "firstgid":1,
         "source":"tileset.tsx"
        }],
 "tilewidth":64,
 "type":"map",
 "version":"1.10",
 "width":21
}